X:1
T:Title
%%score { ( 1 3 ) | ( 2 4 5 ) }
L:1/8
Q:1/4=108
M:4/4
K:C
V:1 treble nm="Grand Piano"
V:3 treble 
V:2 bass 
V:4 bass 
V:5 bass 
V:1
 [Ec]2 [Ec]2 [Ec]3 [GB] | [FA]>[Ac] [GB]>[FA] [EG]2 E2 | E2 E2 E3 E | [DF]>[CE] [DF]>[B,G] [CE]4 | %4
w: Arthur~S.~Sullivan * * *||||
 [Ec]2 [Ec]2 [Ec]3 [CGB] | [CFA]>[CAc] [CGB]>[CFA] [CEG]2 [G,CE]2 | [G,CE]2 [CEA]2 D>D G>B | %7
w: |||
 A2 A2 G4 | [Ge]4 z4 | [Fd]2 [Ec]2 C2 z2 | [G,FG]2 B>A [FA]2 [G,FG]2 | [G,FG]2 B>A [FA]2 [FG]2 | %12
w: |||||
 [Ge]4 z4 | [Fd]2 [Ec]2 C2 z2 | [G,EG]>[EA] [EB]>[Ec] [EB]2 [_EB]2 | E4 (3FGA (3Bcd | [Ge]4 z4 | %17
w: |||||
 [Fd]2 [Ec]2 C2 z2 | [G,FG]2 B>A [FA]2 [G,FG]2 | [G,FG]2 B>A [FA]2 [FG]2 | [Ge]4 z4 | %21
w: ||||
 [Fd]2 [Ac]2 [GB]2 A2 | G>G [Gc]>[Ge] [CFd]2 [B,Fd]2 | [CEc]6 z2 |] %24
w: |||
V:2
 [C,G,]2 [C,G,]2 [C,G,]3 [C,C] | [F,C]>[F,C] [F,C]>[F,C] [C,C]2 [C,G,C]2 | %2
 [C,G,C]2 [C,G,C]2 [C,G,C]3 [C,G,C] | [G,,G,]>[G,,G,] [G,,G,]>[G,,G,] [C,G,]4 | %4
 [C,G,]2 [C,G,]2 [C,G,]3 C, | F,>F, F,>F, C,2 C,2 | C,2 C,2 [D,B,]>[D,B,] [D,G,B,]>[D,G,D] | %7
 [D,G,C]2 [D,^F,C]2 [G,B,]4 | C2 z2 C2 z C, | [C,C]2 [C,G,]2 z2 G,2 | %10
 z z/ A/ [G,,G,]2 [D,G,]2 G,,2 | z z/ A/ [G,,G,]2 [D,G,]2 [G,B,]2 | C2 z2 C2 z C, | %13
 [C,C]2 [C,G,]2 z2 G,2 | C,>[B,,F,] [B,,G,]>[B,,A,] [B,,G,]2 [B,,F,]2 | E,4 z4 | C2 z2 C2 z C, | %17
 [C,C]2 [C,G,]2 z2 G,2 | z z/ A/ [G,,G,]2 [D,G,]2 G,,2 | z z/ A/ [G,,G,]2 [D,G,]2 [G,B,]2 | %20
 C2 z2 C2 z C, | [F,A,]2 [F,C]2 z2[K:treble] F2 | [G,CE]>[K:bass][G,CE] [E,C]>[C,C] G,,2 G,,2 | %23
 C,6 z2 |] %24
V:3
 x8 | x8 | x8 | x8 | x8 | x8 | x8 | x8 | z2 G,2 [Ge]3 [Ge] | z4 [EG]4 | z2 F2 z4 | z2 F2 z4 | %12
 z2 G,2 [Ge]3 [Ge] | z4 [EG]4 | x8 | x8 | z2 G,2 [Ge]3 [Ge] | z4 [EG]4 | z2 F2 z4 | z2 F2 z4 | %20
 z2 G,2 [Ge]3 [Ge] | x8 | x8 | x8 |] %24
V:4
 x8 | x8 | x8 | x8 | x8 | x8 | x8 | x8 | z4 z2 G,2 | z4 C,4 | D,2 z2 z4 | D,2 z2 z4 | z4 z2 G,2 | %13
 z4 C,4 | x8 | x8 | z4 z2 G,2 | z4 C,4 | D,2 z2 z4 | D,2 z2 z4 | z4 z2 G,2 | z4 [F,C]4[K:treble] | %22
 x3/2[K:bass] x13/2 | x8 |] %24
V:5
 x8 | x8 | x8 | x8 | x8 | x8 | x8 | x8 | C,4 C,4 | x8 | x8 | x8 | C,4 C,4 | x8 | x8 | x8 | %16
 C,4 C,4 | x8 | x8 | x8 | C,4 C,4 | x6[K:treble] x2 | x3/2[K:bass] x13/2 | x8 |] %24

